X: 25127
T: Mairi's Wedding
R: polka
M: 2/4
K: Adorian
B|:A>B AB|de f2|e>d Bd|fe f<a|
A>A AB|de f2|e>d BG|1 A2 AB:|2 A2 Af||
|:a>a ab|ag f2|e>d Bd|fe f<a|
a>a ab|ag f2|e>d BG|1 A2 Af:|2 A2 AB||

